Newaita-dark/.DP/24/telegram-mute-panel.svg

<svg xmlns="http://www.w3.org/2000/svg" xmlns:xlink="http://www.w3.org/1999/xlink" width="24px" height="24px" viewBox="0 0 24 24" version="1.1">
<g id="surface1">
<path style=" stroke:none;fill-rule:nonzero;fill:rgb(93.333334%,93.333334%,93.333334%);fill-opacity:0.392157;" d="M 19.5 3.503906 C 19.371094 3.5 19.242188 3.523438 19.117188 3.574219 L 3.679688 9.679688 C 2.789062 10.03125 2.84375 11.3125 3.757812 11.585938 L 10.421875 13.585938 L 12.414062 20.242188 C 12.691406 21.160156 13.96875 21.214844 14.324219 20.320312 L 14.59375 19.648438 C 14.152344 19.066406 13.890625 18.339844 13.890625 17.554688 C 13.890625 15.828125 15.132812 14.40625 16.773438 14.128906 L 20.429688 4.886719 C 20.578125 4.5 20.480469 4.054688 20.171875 3.773438 C 19.984375 3.601562 19.746094 3.507812 19.5 3.503906 Z M 19.5 3.503906 "/>
<path style=" stroke:none;fill-rule:nonzero;fill:rgb(93.333334%,93.333334%,93.333334%);fill-opacity:1;" d="M 17.367188 15.070312 C 18.734375 15.070312 19.84375 16.179688 19.84375 17.554688 C 19.84375 18.921875 18.734375 20.03125 17.367188 20.03125 C 15.992188 20.03125 14.882812 18.921875 14.882812 17.554688 C 14.882812 16.179688 15.992188 15.070312 17.367188 15.070312 Z M 17.367188 15.070312 "/>
</g>
</svg>

<svg xmlns="http://www.w3.org/2000/svg" width="32" height="32" viewBox="0 0 24 24"><g fill="#bdbdbd"><path d="M19.5 3.504c-.129 0-.262.023-.383.07L3.68 9.68c-.89.351-.836 1.629.082 1.906l6.656 1.996 2 6.66c.273.918 1.555.973 1.906.082l.266-.676a3.48 3.48 0 0 1-.7-2.097 3.469 3.469 0 0 1 2.883-3.422l3.653-9.242a1.008 1.008 0 0 0-.926-1.383zm0 0" fill-opacity=".392"/><path d="M17.363 15.07a2.481 2.481 0 0 1 0 4.961 2.481 2.481 0 0 1 0-4.96zm0 0"/></g></svg>
